source/svgs/bowtie/uE956-server.svg

<svg xmlns="http://www.w3.org/2000/svg" viewBox="0 0 448 448" enable-background="new 0 0 448 448"><path d="M352 448h-256v-416c0-17.641 14.359-32 32-32h192c17.656 0 32 14.359 32 32v416zm-224-32h192v-384h-192v384zm160-352h-128v32h128v-32zm0 224h-128v32h128v-32zm0 64h-128v32h128v-32z"/></svg>

<svg xmlns="http://www.w3.org/2000/svg" viewBox="0 0 448 448"><path d="M352 448H96V32c0-17.641 14.359-32 32-32h192c17.656 0 32 14.359 32 32v416zm-224-32h192V32H128v384zM288 64H160v32h128V64zm0 224H160v32h128v-32zm0 64H160v32h128v-32z"/></svg>
